static/AN Logo - horizontal white.svg

<svg width="1308" height="260" viewBox="0 0 1308 260" fill="none" xmlns="http://www.w3.org/2000/svg">
<path d="M1289.74 214.674C1285.08 214.674 1281.5 213.273 1279.02 210.471C1276.53 207.67 1275.28 203.779 1275.28 198.798V113.116C1275.28 107.98 1276.53 104.089 1279.02 101.443C1281.5 98.6415 1285.08 97.2407 1289.74 97.2407C1294.41 97.2407 1297.98 98.6415 1300.47 101.443C1303.11 104.089 1304.44 107.98 1304.44 113.116V198.798C1304.44 203.779 1303.19 207.67 1300.7 210.471C1298.22 213.273 1294.56 214.674 1289.74 214.674ZM1289.74 75.5284C1284.3 75.5284 1280.03 74.2055 1276.92 71.5595C1273.96 68.7579 1272.49 64.9447 1272.49 60.1197C1272.49 55.1391 1273.96 51.3259 1276.92 48.6799C1280.03 46.034 1284.3 44.711 1289.74 44.711C1295.34 44.711 1299.62 46.034 1302.57 48.6799C1305.52 51.3259 1307 55.1391 1307 60.1197C1307 64.9447 1305.52 68.7579 1302.57 71.5595C1299.62 74.2055 1295.34 75.5284 1289.74 75.5284Z" fill="#E8E8E8"/>
<path d="M1179.58 213.983C1174.91 213.983 1171.34 212.738 1168.85 210.247C1166.36 207.602 1165.12 203.866 1165.12 199.041V60.3627C1165.12 55.5378 1166.36 51.8802 1168.85 49.3899C1171.34 46.8996 1174.91 45.6544 1179.58 45.6544C1184.24 45.6544 1187.82 46.8996 1190.3 49.3899C1192.95 51.8802 1194.27 55.5378 1194.27 60.3627V146.511H1194.73L1233.21 105.888C1236.32 102.776 1239.04 100.363 1241.38 98.6511C1243.71 96.939 1246.89 96.0829 1250.94 96.0829C1254.98 96.0829 1258.01 97.1724 1260.03 99.3515C1262.21 101.375 1263.3 103.865 1263.3 106.822C1263.3 109.78 1261.9 112.737 1259.1 115.694L1218.52 158.652V146.511L1263.06 194.605C1265.86 197.563 1267.11 200.598 1266.79 203.71C1266.64 206.668 1265.4 209.158 1263.06 211.181C1260.73 213.049 1257.78 213.983 1254.2 213.983C1249.85 213.983 1246.35 213.127 1243.71 211.415C1241.22 209.703 1238.42 207.135 1235.31 203.71L1194.73 161.22H1194.27V199.041C1194.27 209.002 1189.37 213.983 1179.58 213.983Z" fill="#E8E8E8"/>
<path d="M1117.15 214.451C1105.18 214.451 1094.77 212.038 1085.9 207.213C1077.04 202.233 1070.2 195.229 1065.38 186.201C1060.56 177.174 1058.15 166.59 1058.15 154.45C1058.15 145.267 1059.47 137.096 1062.12 129.936C1064.91 122.621 1068.88 116.473 1074.01 111.492C1079.14 106.356 1085.36 102.465 1092.67 99.8192C1099.97 97.0177 1108.14 95.6169 1117.15 95.6169C1122.28 95.6169 1127.8 96.3173 1133.71 97.718C1139.77 99.1188 1145.45 101.453 1150.73 104.722C1153.22 106.278 1154.85 108.146 1155.63 110.325C1156.41 112.504 1156.56 114.761 1156.1 117.096C1155.63 119.275 1154.62 121.22 1153.07 122.932C1151.67 124.489 1149.88 125.5 1147.7 125.967C1145.53 126.279 1143.12 125.734 1140.47 124.333C1137.05 122.31 1133.56 120.831 1129.98 119.897C1126.4 118.808 1122.98 118.263 1119.72 118.263C1114.59 118.263 1110.08 119.119 1106.19 120.831C1102.31 122.388 1098.96 124.722 1096.16 127.835C1093.52 130.792 1091.5 134.528 1090.1 139.041C1088.7 143.555 1088 148.769 1088 154.684C1088 166.201 1090.72 175.306 1096.16 181.999C1101.76 188.536 1109.61 191.805 1119.72 191.805C1122.98 191.805 1126.33 191.338 1129.75 190.404C1133.32 189.47 1136.9 187.991 1140.47 185.968C1143.12 184.567 1145.45 184.1 1147.47 184.567C1149.65 185.034 1151.43 186.124 1152.83 187.836C1154.23 189.392 1155.09 191.338 1155.4 193.672C1155.71 195.851 1155.4 198.03 1154.47 200.209C1153.69 202.388 1152.13 204.178 1149.8 205.579C1144.67 208.692 1139.23 210.949 1133.48 212.35C1127.73 213.75 1122.28 214.451 1117.15 214.451Z" fill="#E8E8E8"/>
<path fill-rule="evenodd" clip-rule="evenodd" d="M966.244 209.781C972.774 212.894 980.159 214.451 988.399 214.451C994.618 214.451 1000.14 213.361 1004.96 211.182C1009.78 209.003 1013.74 205.968 1016.85 202.077C1017.76 200.947 1018.59 199.763 1019.33 198.524C1019.87 197.623 1021.51 197.992 1021.51 199.042C1021.51 203.867 1022.68 207.602 1025.01 210.248C1027.5 212.739 1030.92 213.984 1035.27 213.984C1039.63 213.984 1042.97 212.739 1045.3 210.248C1047.63 207.602 1048.8 203.867 1048.8 199.042V143.01C1048.8 132.115 1047.01 123.244 1043.44 116.395C1039.86 109.391 1034.42 104.177 1027.11 100.753C1019.96 97.3289 1010.79 95.6169 999.593 95.6169C994.151 95.6169 988.088 96.2394 981.403 97.4846C974.873 98.7297 968.032 100.831 960.881 103.788C957.927 104.878 955.828 106.59 954.584 108.924C953.34 111.103 952.718 113.36 952.718 115.695C952.718 118.03 953.34 120.209 954.584 122.232C955.828 124.1 957.538 125.345 959.715 125.967C962.047 126.59 964.69 126.201 967.644 124.8C973.396 122.154 978.838 120.286 983.968 119.197C989.254 118.107 994.151 117.563 998.66 117.563C1006.74 117.563 1012.5 119.275 1015.92 122.699C1019.34 126.123 1021.05 131.726 1021.05 139.508C1021.05 142.216 1018.85 144.411 1016.14 144.411H1012.89C996.406 144.411 983.268 145.501 973.474 147.68C963.679 149.859 956.605 153.438 952.252 158.419C947.899 163.244 945.722 169.859 945.722 178.264C945.722 185.112 947.51 191.26 951.086 196.707C954.817 202.155 959.87 206.513 966.244 209.781ZM1021.05 166.357C1021.05 163.52 1018.75 161.221 1015.91 161.221H1013.12C1003.48 161.221 995.784 161.688 990.031 162.621C984.279 163.555 980.159 165.19 977.671 167.524C975.339 169.703 975.096 172.816 975.096 176.863C975.096 181.999 976.884 186.201 980.46 189.47C984.036 192.738 988.088 194.373 994.462 194.373C999.593 194.373 1004.1 193.205 1007.99 190.871C1012.03 188.38 1015.22 185.034 1017.55 180.832C1019.88 176.629 1021.05 171.804 1021.05 166.357Z" fill="#E8E8E8"/>
<path d="M809.904 213.983C805.396 213.983 801.898 212.738 799.41 210.247C797.078 207.757 795.912 204.177 795.912 199.508V60.5962C795.912 55.7713 797.078 52.1136 799.41 49.6233C801.898 46.9774 805.085 45.6544 808.972 45.6544C812.547 45.6544 815.19 46.3548 816.901 47.7556C818.766 49.0008 820.943 51.1798 823.43 54.2926L912.748 170.325H906.685V59.8958C906.685 55.3822 907.851 51.8802 910.183 49.3899C912.67 46.8996 916.168 45.6544 920.677 45.6544C925.186 45.6544 928.606 46.8996 930.938 49.3899C933.27 51.8802 934.436 55.3822 934.436 59.8958V199.975C934.436 204.333 933.348 207.757 931.171 210.247C928.995 212.738 926.041 213.983 922.31 213.983C918.734 213.983 915.858 213.283 913.681 211.882C911.66 210.481 909.405 208.224 906.918 205.111L817.833 89.079H823.664V199.508C823.664 204.177 822.497 207.757 820.165 210.247C817.833 212.738 814.413 213.983 809.904 213.983Z" fill="#E8E8E8"/>
<path d="M708.093 213.75C703.429 213.75 699.853 212.349 697.366 209.547C694.878 206.746 693.634 202.855 693.634 197.874V112.192C693.634 107.056 694.878 103.165 697.366 100.519C699.853 97.7176 703.429 96.3168 708.093 96.3168C712.757 96.3168 716.333 97.7176 718.821 100.519C721.464 103.165 722.785 107.056 722.785 112.192V197.874C722.785 202.855 721.541 206.746 719.054 209.547C716.566 212.349 712.913 213.75 708.093 213.75ZM708.093 74.6045C702.652 74.6045 698.376 73.2816 695.267 70.6356C692.313 67.834 690.836 64.0208 690.836 59.1958C690.836 54.2152 692.313 50.402 695.267 47.756C698.376 45.1101 702.652 43.7871 708.093 43.7871C713.69 43.7871 717.965 45.1101 720.919 47.756C723.873 50.402 725.35 54.2152 725.35 59.1958C725.35 64.0208 723.873 67.834 720.919 70.6356C717.965 73.2816 713.69 74.6045 708.093 74.6045Z" fill="#E8E8E8"/>
<path d="M597.003 213.983C592.339 213.983 588.763 212.738 586.276 210.247C583.788 207.602 582.544 203.866 582.544 199.041V60.3627C582.544 55.5378 583.788 51.8802 586.276 49.3899C588.763 46.8996 592.339 45.6544 597.003 45.6544C601.667 45.6544 605.243 46.8996 607.73 49.3899C610.373 51.8802 611.695 55.5378 611.695 60.3627V125.825C611.695 133.317 620.826 136.987 626.011 131.579L650.64 105.888C653.75 102.776 656.47 100.363 658.803 98.6511C661.135 96.939 664.322 96.0829 668.364 96.0829C672.406 96.0829 675.438 97.1724 677.459 99.3515C679.636 101.375 680.724 103.865 680.724 106.822C680.724 109.78 679.325 112.737 676.526 115.694L646.95 146.962C643.941 150.143 643.914 155.113 646.89 158.325L680.491 194.605C683.289 197.563 684.533 200.598 684.222 203.71C684.067 206.668 682.823 209.158 680.491 211.181C678.159 213.049 675.205 213.983 671.629 213.983C667.276 213.983 663.778 213.127 661.135 211.415C658.647 209.703 655.849 207.135 652.739 203.71L625.99 176.018C620.795 170.64 611.695 174.318 611.695 181.795V199.041C611.695 209.002 606.798 213.983 597.003 213.983Z" fill="#E8E8E8"/>
<path d="M534.58 214.451C522.609 214.451 512.193 212.038 503.331 207.213C494.469 202.233 487.628 195.229 482.809 186.201C477.989 177.174 475.579 166.59 475.579 154.45C475.579 145.267 476.901 137.096 479.544 129.936C482.342 122.621 486.307 116.473 491.437 111.492C496.568 106.356 502.787 102.465 510.094 99.8192C517.401 97.0177 525.563 95.6169 534.58 95.6169C539.711 95.6169 545.23 96.3173 551.138 97.718C557.201 99.1188 562.876 101.453 568.162 104.722C570.649 106.278 572.282 108.146 573.059 110.325C573.837 112.504 573.992 114.761 573.526 117.096C573.059 119.275 572.049 121.22 570.494 122.932C569.095 124.489 567.307 125.5 565.13 125.967C562.954 126.279 560.544 125.734 557.901 124.333C554.48 122.31 550.982 120.831 547.407 119.897C543.831 118.808 540.41 118.263 537.146 118.263C532.015 118.263 527.506 119.119 523.62 120.831C519.733 122.388 516.39 124.722 513.592 127.835C510.949 130.792 508.928 134.528 507.528 139.041C506.129 143.555 505.43 148.769 505.43 154.684C505.43 166.201 508.15 175.306 513.592 181.999C519.189 188.536 527.04 191.805 537.146 191.805C540.41 191.805 543.753 191.338 547.173 190.404C550.749 189.47 554.325 187.991 557.901 185.968C560.544 184.567 562.876 184.1 564.897 184.567C567.074 185.034 568.862 186.124 570.261 187.836C571.66 189.392 572.515 191.338 572.826 193.672C573.137 195.851 572.826 198.03 571.893 200.209C571.116 202.388 569.561 204.178 567.229 205.579C562.099 208.692 556.657 210.949 550.905 212.35C545.152 213.75 539.711 214.451 534.58 214.451Z" fill="#E8E8E8"/>
<path fill-rule="evenodd" clip-rule="evenodd" d="M314.143 211.414C316.475 213.126 319.506 213.982 323.238 213.982C327.28 213.982 330.389 212.97 332.566 210.947C334.742 208.924 336.841 205.655 338.862 201.141L348.18 179.132C349.482 176.057 352.498 174.059 355.837 174.059H425.052C428.375 174.059 431.378 176.037 432.691 179.089L442.173 201.141C444.038 205.499 446.137 208.768 448.469 210.947C450.957 212.97 454.377 213.982 458.73 213.982C462.306 213.982 465.182 213.204 467.359 211.647C469.535 209.935 470.857 207.601 471.323 204.643C471.79 201.686 471.168 198.418 469.458 194.838L407.658 58.2606C407.532 57.9785 407.404 57.7016 407.274 57.4298C405.324 53.3533 402.965 50.4395 400.196 48.6885C399.846 48.4356 399.49 48.1985 399.128 47.9772C396.594 46.428 393.763 45.6535 390.634 45.6535C390.621 45.6535 390.609 45.6535 390.596 45.6535C390.142 45.6543 389.695 45.6701 389.253 45.7009C386.073 45.9222 383.191 46.9181 380.606 48.6885C380.256 48.922 379.913 49.1761 379.575 49.4509C377.211 51.3746 375.145 54.3111 373.377 58.2606L311.81 194.838C310.256 198.418 309.712 201.686 310.178 204.643C310.644 207.445 311.966 209.702 314.143 211.414ZM407.749 150.246C413.711 150.246 417.736 144.156 415.398 138.671L398.069 98.0192C395.193 91.2703 385.622 91.2835 382.763 98.0402L365.567 138.692C363.248 144.174 367.272 150.246 373.224 150.246H407.749Z" fill="#E8E8E8"/>
<path d="M133.501 0C207.231 9.52319e-05 267.002 58.0137 267.002 129.577C267.002 201.141 207.231 259.154 133.501 259.154C59.7704 259.154 6.56363e-05 201.141 0 129.577C0 58.0136 59.7704 0 133.501 0ZM207.393 147.578C204.3 144.205 199.432 144.374 196.519 147.955C177.113 171.813 164.783 186.69 134.261 186.69C103.739 186.69 91.4098 171.813 72.0039 147.955C69.091 144.374 64.2225 144.205 61.1299 147.578C58.0377 150.951 57.8921 156.589 60.8047 160.17C82.9965 187.453 99.3251 215.843 134.261 215.844C169.197 215.844 185.526 187.453 207.718 160.17C210.63 156.589 210.485 150.951 207.393 147.578ZM228.723 100.883C218.061 82.254 194.447 75.8716 175.979 86.627C157.513 97.3824 151.185 121.203 161.847 139.832C163.17 142.144 165.017 143.898 167.211 145.246C167.263 145.278 167.33 145.245 167.339 145.185C168.558 136.753 173.453 128.947 181.336 124.355C195.009 116.393 212.492 121.118 220.386 134.91C222.425 138.474 223.625 142.295 224.047 146.139C224.055 146.212 224.146 146.241 224.195 146.186C234.91 133.985 237.246 115.775 228.723 100.883ZM98.9473 90.7803C83.869 75.57 59.4221 75.569 44.3438 90.7793C29.5632 105.69 29.2712 129.683 43.4688 144.951C43.5376 145.025 43.6616 144.993 43.6865 144.895C45.4928 137.561 50.1368 130.947 57.1367 126.87C70.8093 118.907 88.2925 123.633 96.1865 137.425C97.6216 139.932 98.6405 142.568 99.2656 145.248C99.289 145.346 99.4124 145.38 99.4824 145.307C114.021 130.057 113.844 105.808 98.9473 90.7803Z" fill="#E8E8E8"/>
</svg>

<svg xmlns="http://www.w3.org/2000/svg" width="1308" height="260" fill="none" viewBox="0 0 1308 260"><path fill="#e8e8e8" d="M1289.74 214.674c-4.66 0-8.24-1.401-10.72-4.203-2.49-2.801-3.74-6.692-3.74-11.673v-85.682c0-5.136 1.25-9.027 3.74-11.673 2.48-2.802 6.06-4.202 10.72-4.202 4.67 0 8.24 1.4 10.73 4.202 2.64 2.646 3.97 6.537 3.97 11.673v85.682c0 4.981-1.25 8.872-3.74 11.673-2.48 2.802-6.14 4.203-10.96 4.203m0-139.146c-5.44 0-9.71-1.323-12.82-3.969-2.96-2.801-4.43-6.614-4.43-11.44 0-4.98 1.47-8.793 4.43-11.44 3.11-2.645 7.38-3.968 12.82-3.968 5.6 0 9.88 1.323 12.83 3.969s4.43 6.46 4.43 11.44c0 4.825-1.48 8.638-4.43 11.44-2.95 2.645-7.23 3.968-12.83 3.968m-110.16 138.455c-4.67 0-8.24-1.245-10.73-3.736-2.49-2.645-3.73-6.381-3.73-11.206V60.363c0-4.825 1.24-8.483 3.73-10.973s6.06-3.736 10.73-3.736c4.66 0 8.24 1.246 10.72 3.736 2.65 2.49 3.97 6.148 3.97 10.973v86.148h.46l38.48-40.623c3.11-3.112 5.83-5.525 8.17-7.237 2.33-1.712 5.51-2.568 9.56-2.568q6.06 0 9.09 3.269 3.27 3.034 3.27 7.47 0 4.437-4.2 8.872l-40.58 42.958v-12.141l44.54 48.094c2.8 2.958 4.05 5.993 3.73 9.105-.15 2.958-1.39 5.448-3.73 7.471-2.33 1.868-5.28 2.802-8.86 2.802-4.35 0-7.85-.856-10.49-2.568q-3.735-2.568-8.4-7.705l-40.58-42.49h-.46v37.821c0 9.961-4.9 14.942-14.69 14.942m-62.43.468c-11.97 0-22.38-2.413-31.25-7.238q-13.29-7.47-20.52-21.012-7.23-13.54-7.23-31.751c0-9.183 1.32-17.354 3.97-24.514 2.79-7.315 6.76-13.463 11.89-18.444q7.695-7.704 18.66-11.673c7.3-2.801 15.47-4.202 24.48-4.202q7.695 0 16.56 2.101a56.2 56.2 0 0 1 17.02 7.004c2.49 1.556 4.12 3.424 4.9 5.603s.93 4.436.47 6.771q-.705 3.268-3.03 5.836-2.1 2.335-5.37 3.035-3.255.468-7.23-1.634c-3.42-2.023-6.91-3.502-10.49-4.436q-5.37-1.634-10.26-1.634-7.695 0-13.53 2.568a26.7 26.7 0 0 0-10.03 7.004q-3.96 4.436-6.06 11.206t-2.1 15.643q0 17.275 8.16 27.315c5.6 6.537 13.45 9.806 23.56 9.806 3.26 0 6.61-.467 10.03-1.401 3.57-.934 7.15-2.413 10.72-4.436 2.65-1.401 4.98-1.868 7-1.401 2.18.467 3.96 1.557 5.36 3.269 1.4 1.556 2.26 3.502 2.57 5.836q.465 3.268-.93 6.537c-.78 2.179-2.34 3.969-4.67 5.37q-7.695 4.67-16.32 6.771c-5.75 1.4-11.2 2.101-16.33 2.101"/><path fill="#e8e8e8" fill-rule="evenodd" d="M966.244 209.781q9.795 4.67 22.155 4.67 9.33 0 16.561-3.269c4.82-2.179 8.78-5.214 11.89-9.105a31 31 0 0 0 2.48-3.553c.54-.901 2.18-.532 2.18.518 0 4.825 1.17 8.56 3.5 11.206q3.735 3.736 10.26 3.736c4.36 0 7.7-1.245 10.03-3.736 2.33-2.646 3.5-6.381 3.5-11.206V143.01c0-10.895-1.79-19.766-5.36-26.615-3.58-7.004-9.02-12.218-16.33-15.642q-10.723-5.136-27.517-5.136-8.163 0-18.19 1.868-9.795 1.868-20.522 6.303-4.431 1.635-6.297 5.136-1.866 3.269-1.866 6.771t1.866 6.537q1.866 2.802 5.131 3.735 3.498.934 7.929-1.167 8.629-3.97 16.324-5.603 7.929-1.634 14.692-1.634c8.08 0 13.84 1.712 17.26 5.136q5.13 5.136 5.13 16.809c0 2.708-2.2 4.903-4.91 4.903h-3.25q-24.725 0-39.416 3.269-14.692 3.268-21.222 10.739-6.53 7.237-6.53 19.845 0 10.272 5.364 18.443 5.597 8.172 15.158 13.074m54.806-43.424c0-2.837-2.3-5.136-5.14-5.136h-2.79q-14.46 0-23.089 1.4-8.628 1.401-12.36 4.903c-2.332 2.179-2.575 5.292-2.575 9.339q0 7.704 5.364 12.607c3.576 3.268 7.628 4.903 14.002 4.903q7.695 0 13.528-3.502c4.04-2.491 7.23-5.837 9.56-10.039 2.33-4.203 3.5-9.028 3.5-14.475" clip-rule="evenodd"/><path fill="#e8e8e8" d="M809.904 213.983q-6.762 0-10.494-3.736-3.498-3.735-3.498-10.739V60.596q0-7.237 3.498-10.973 3.732-3.969 9.562-3.969 5.362 0 7.929 2.102 2.798 1.868 6.529 6.537l89.318 116.032h-6.063V59.895q0-6.77 3.498-10.505 3.73-3.736 10.494-3.736t10.261 3.736q3.498 3.735 3.498 10.506v140.079q0 6.537-3.265 10.272-3.264 3.736-8.861 3.736-5.364 0-8.629-2.101-3.032-2.101-6.763-6.771L817.833 89.079h5.831v110.429q0 7.004-3.499 10.739t-10.261 3.736m-101.811-.233q-6.996 0-10.727-4.203-3.732-4.202-3.732-11.673v-85.682q0-7.704 3.732-11.673 3.73-4.202 10.727-4.202t10.728 4.202q3.964 3.969 3.964 11.673v85.682q0 7.471-3.731 11.673-3.731 4.203-10.961 4.203m0-139.145q-8.162 0-12.826-3.97-4.431-4.201-4.431-11.44 0-7.47 4.431-11.439 4.664-3.969 12.826-3.969 8.395 0 12.826 3.969 4.431 3.97 4.431 11.44 0 7.237-4.431 11.44-4.43 3.969-12.826 3.969m-111.09 139.378q-6.996 0-10.727-3.736-3.732-3.968-3.732-11.206V60.363q0-7.238 3.732-10.973 3.73-3.736 10.727-3.736t10.727 3.736q3.965 3.735 3.965 10.973v65.462c0 7.492 9.131 11.162 14.316 5.754l24.629-25.691q4.664-4.668 8.163-7.237 3.498-2.568 9.561-2.568t9.095 3.269q3.265 3.034 3.265 7.47 0 4.437-4.198 8.872l-29.576 31.268a8.313 8.313 0 0 0-.06 11.363l33.601 36.28q4.197 4.437 3.731 9.105-.233 4.437-3.731 7.471-3.498 2.802-8.862 2.802-6.53 0-10.494-2.568-3.732-2.568-8.396-7.705l-26.749-27.692c-5.195-5.378-14.295-1.7-14.295 5.777v17.246q0 14.942-14.692 14.942m-62.423.468q-17.956 0-31.249-7.238-13.293-7.47-20.522-21.012-7.23-13.54-7.23-31.751 0-13.774 3.965-24.514 4.197-10.972 11.893-18.444 7.697-7.704 18.657-11.673 10.96-4.202 24.486-4.202 7.696 0 16.558 2.101a56.2 56.2 0 0 1 17.024 7.004q3.731 2.334 4.897 5.603t.467 6.771q-.7 3.268-3.032 5.836-2.098 2.335-5.364 3.035-3.264.468-7.229-1.634-5.132-3.035-10.494-4.436-5.365-1.634-10.261-1.634-7.697 0-13.526 2.568a26.6 26.6 0 0 0-10.028 7.004q-3.964 4.436-6.064 11.206-2.098 6.77-2.098 15.643 0 17.275 8.162 27.315 8.395 9.806 23.554 9.806 4.897 0 10.027-1.401 5.364-1.401 10.728-4.436 3.965-2.102 6.996-1.401 3.266.7 5.364 3.269 2.099 2.335 2.565 5.836.466 3.268-.933 6.537-1.166 3.268-4.664 5.37a57.6 57.6 0 0 1-16.324 6.771q-8.629 2.1-16.325 2.101"/><path fill="#e8e8e8" fill-rule="evenodd" d="M314.143 211.414q3.498 2.568 9.095 2.568 6.063 0 9.328-3.035t6.296-9.806l9.318-22.009a8.32 8.32 0 0 1 7.657-5.073h69.215a8.32 8.32 0 0 1 7.639 5.03l9.482 22.052q2.798 6.537 6.296 9.806 3.732 3.035 10.261 3.035 5.364 0 8.629-2.335 3.265-2.567 3.964-7.004.7-4.435-1.865-9.805l-61.8-136.577a35 35 0 0 0-.384-.831q-2.925-6.115-7.078-8.742-.525-.379-1.068-.71-3.8-2.325-8.494-2.325h-.038q-.68.002-1.343.048-4.77.332-8.647 2.987-.524.35-1.031.763-3.546 2.886-6.198 8.81L311.81 194.838q-2.331 5.37-1.632 9.805.7 4.203 3.965 6.771m93.606-61.168c5.962 0 9.987-6.09 7.649-11.575l-17.329-40.652c-2.876-6.749-12.447-6.736-15.306.021l-17.196 40.652c-2.319 5.482 1.705 11.554 7.657 11.554z" clip-rule="evenodd"/><path fill="#e8e8e8" d="M133.501 0c73.73 0 133.501 58.014 133.501 129.577 0 71.564-59.771 129.577-133.501 129.577S.001 201.141 0 129.577C0 58.014 59.77 0 133.501 0m73.892 147.578c-3.093-3.373-7.961-3.204-10.874.377-19.406 23.858-31.736 38.735-62.258 38.735s-42.851-14.877-62.257-38.735c-2.913-3.581-7.782-3.75-10.874-.377s-3.238 9.011-.325 12.592c22.191 27.283 38.52 55.673 73.456 55.674s51.265-28.391 73.457-55.674c2.912-3.581 2.767-9.219-.325-12.592m21.33-46.695c-10.662-18.629-34.276-25.011-52.744-14.256-18.466 10.755-24.794 34.576-14.132 53.205 1.323 2.312 3.17 4.066 5.364 5.414a.085.085 0 0 0 .128-.061c1.219-8.432 6.114-16.238 13.997-20.83 13.673-7.962 31.156-3.237 39.05 10.555a28.9 28.9 0 0 1 3.661 11.229.085.085 0 0 0 .148.047c10.715-12.201 13.051-30.411 4.528-45.303M98.947 90.78c-15.078-15.21-39.525-15.211-54.603 0-14.78 14.91-15.073 38.903-.875 54.171a.128.128 0 0 0 .218-.056c1.806-7.334 6.45-13.948 13.45-18.025 13.672-7.963 31.156-3.237 39.05 10.555a29 29 0 0 1 3.079 7.823.128.128 0 0 0 .216.059c14.539-15.25 14.362-39.499-.535-54.527"/></svg>
